X: 117
T: The Boys Of The Town
R: jig
M: 6/8
L: 1/8
K: Gmaj
|:d|ged B2A|BGD G2A|BdB AGA|GBd efg|
ged B2A|BGD G2A|BdB AGA|BGG G2:|
|:B|def gfg|eaa eaa|bag e2d|egg egg|
def gfg|afd efg|edB AGA|1 BGG G2:|2 BGG G3 |]
F: https://thesession.org/tunes/1264#setting1264

